X: 121008
T: STATEN ISLAND
%R: hornpipe, reel
B: James Kerr "Merry Melodies" v.1 p.21 s.0 #8
Z: 2017 John Chambers <jc:trillian.mit.edu>
M: 2/4
L: 1/16
K: D
uA2 |\
FDFG A2A2 | dfed dcBA |\
B2GB A2FA | G2E2E2A2 |\
FDFG A2A2 | dfed dcBA |\
d2d2 efge | f2d2d2 :|
|: (fg) |\
a2fa g2eg | f2df ecA2 |\
=c2c2 e=fge | =c2c2 e=fge |\
a2fa g2eg | f2df ecA2 |\
d2d2 efge | f2d2d2 :|

%%sep 1 1 500
%%sep 1 1 500

